X:235
T: AM URAL DA BIN ICH GEBOREN
N: B0722
O: Europa, Mitteleuropa, Deutschland, Wetterau
R: ???
M: 6/8
L: 1/16
K: Bb
A2 | d2c2B2c2B2G2 | F6D4
d2 | c3cc2c2e2d2 | B6z4
A2 | d2c2B2c2B2G2 | F6D4
d2 | c3cc2c2e2d2 | B6z4
F2 | c2c4e2d2c2 | d6z4
Bc | d2c2d2e2G2c2 | B4A2B4

